X:8
T:Poor Men’s Labours Never Done. JaW.008
M:C|
L:1/8
Q:1/4=100
S:James Winder Ms, Lancashire, 1835-41
R:.Air
O:England
A:Wyresdale,Lancashire
Z:vmp.Chris Partington, Aug 2004
K:G
BB AA GF GD|BB AA GF G2|BB AA GF GD|BB AA GF G2||!
Bd dd e2dc|d2G2 Bd dd|”unclear in MS”e2dcd4|!
e2(dc) d2(cB)|c2(BA)F2D2|B3c A3d|G2F2G4|]

